!!!!SEGMENT: pl-wtm--a-29-277-75_joteyko-tadeusz--wstan-piesni-op-3-no-2.krn
!!!cenid: 19xx:126
!!!COM: Joteyko, Tadeusz
!!!COM-rismID: pe50046072
!!!CDT: 1872-1932
!!!CNT: Polish
!!!OTL: Wstań pieśni Op. 3 No. 2
!!!PDT:
!!!AGN: Secular; Song
!!!YEC: Copyright 2022 Narodowy Instytut Fryderyka Chopina (https://polishscores.org)
!!!YEM: License CC-BY-4.0 (https://creativecommons.org/licenses/by/4.0)
!!!SMS-siglum: PL-Wtm
!!!SMS-shelfmark: A.29.277/75
!!!SMS-variant:
!!!SMS-altvar:
!!!SMS-shelfwork: W
!!!NIFC-rismSourceID: 1001208574
!!!NIFC-rismChildID: 1001208574
!!!NIFC-islandoraID: pl-wtm:34300
!!!URL-pdf-islandora: https://repozytorium.nifc.pl/islandora/object/pl-wtm%3A34300/datastream/PDF/view
!!!URL-scan: https://polish.musicsources.pl/pl/lokalizacje/galeria/druki-muzyczne/20547/2 @EN{Scan on Polish Music Sources Website} @PL{Skany w portalu Dziedzictwo Muzyki Polskiej w otwartym dostępie}
!!!IIIF:
!!!ONB-nifc:
!!!AIN: 2 canto 1 piano
!!!key: A-
**kern	**kern	**dynam	**kern	**text	**text	**dynam	**kern	**text	**text	**dynam
*part3	*part3	*part3	*part2	*part2	*part2	*part2	*part1	*part1	*part1	*part1
*staff4	*staff3	*staff3/4	*staff2	*staff2	*staff2	*	*staff1	*staff1	*staff1	*
*group3	*group3	*	*group2	*	*	*	*group1	*	*	*
*IGacmp	*IGacmp	*	*IGsolo	*	*	*	*IGsolo	*	*	*
*ICklav	*ICklav	*	*ICvox	*	*	*	*ICvox	*	*	*
*Ipiano	*Ipiano	*	*Icanto	*	*	*	*Icanto	*	*	*
*I"Fortepian	*I"Fortepian	*	*I"2. Głos.	*	*	*	*I"1. Głos.	*	*	*
*	*I'	*	*I'	*	*	*	*I'	*	*	*
*>[A,B,B1,B,B2,C]	*>[A,B,B1,B,B2,C]	*>[A,B,B1,B,B2,C]	*>[A,B,B1,B,B2,C]	*>[A,B,B1,B,B2,C]	*>[A,B,B1,B,B2,C]	*>[A,B,B1,B,B2,C]	*>[A,B,B1,B,B2,C]	*>[A,B,B1,B,B2,C]	*>[A,B,B1,B,B2,C]	*>[A,B,B1,B,B2,C]
*>A	*>A	*>A	*>A	*>A	*>A	*>A	*>A	*>A	*>A	*>A
*clefF4	*clefG2	*	*clefG2	*	*	*	*clefG2	*	*	*
*kcancel	*kcancel	*	*kcancel	*	*	*	*kcancel	*	*	*
*k[b-e-a-d-]	*k[b-e-a-d-]	*	*k[b-e-a-d-]	*	*	*	*k[b-e-a-d-]	*	*	*
*A-:	*A-:	*	*A-:	*	*	*	*A-:	*	*	*
*M6/8	*M6/8	*	*M6/8	*	*	*	*M6/8	*	*	*
!!LO:TX:a:B:t=Allegretto cantabile e grazioso.
!	!LO:TX:a:B:t=Allegretto cantabile e grazioso.	!	!	!	!	!	!	!	!	!
4r	(16ddn\LL	p	4r	.	.	.	4r	.	.	.
.	16ee-\	.	.	.	.	.	.	.	.	.
.	16ff\	.	.	.	.	.	.	.	.	.
.	16ee-\	.	.	.	.	.	.	.	.	.
8r	16cc\	.	8r	.	.	.	8r	.	.	.
.	16a-\JJ	.	.	.	.	.	.	.	.	.
=1	=1	=1	=1	=1	=1	=1	=1	=1	=1	=1
4d- 4G 4E-\	4f^>/	.	2.r	.	.	.	2.r	.	.	.
8d- 8G 8E-\	8e-/)	.	.	.	.	.	.	.	.	.
4.E- 4.EE-/	(>8dd-L 8g 8f/	<	.	.	.	.	.	.	.	.
.	8.cc 8.g 8.e-/	.	.	.	.	.	.	.	.	.
.	16bnJk 16g 16dn/	[[	.	.	.	.	.	.	.	.
=2	=2	=2	=2	=2	=2	=2	=2	=2	=2	=2
4AA-/	(4bn [4a- (4dn/	>	2.r	.	.	.	2.r	.	.	.
8c 8A-\	8cc 8a-] 8e-/)))	]	.	.	.	.	.	.	.	.
4c 4A-\	(16ddn\LL	.	.	.	.	.	.	.	.	.
.	16ee-\	.	.	.	.	.	.	.	.	.
.	16ff\	.	.	.	.	.	.	.	.	.
.	16ee-\	.	.	.	.	.	.	.	.	.
8r	16cc\	.	.	.	.	.	.	.	.	.
.	16a-\JJ	.	.	.	.	.	.	.	.	.
=3	=3	=3	=3	=3	=3	=3	=3	=3	=3	=3
4d- 4G 4E-\	4f^>/	.	2.r	.	.	.	2.r	.	.	.
8d- 8G 8E-\	8e-/)	.	.	.	.	.	.	.	.	.
4.E- 4.EE-/	(>8dd-L 8g 8f/	.	.	.	.	.	.	.	.	.
.	8.cc 8.g 8.e-/	.	.	.	.	.	.	.	.	.
.	16b-Jk 16g 16d-/	.	.	.	.	.	.	.	.	.
=4	=4	=4	=4	=4	=4	=4	=4	=4	=4	=4
4A- 4AA-\	4a- 4e- 4c/)	.	2.r	.	.	.	2.r	.	.	.
8A- 8AA-\	8a- 8e- 8c/	.	.	.	.	.	.	.	.	.
4A- 4AA-\	4a- 4e- 4c/	.	.	.	.	.	.	.	.	.
8A- 8AA-\	8a- 8e- 8c/	.	.	.	.	.	.	.	.	.
!!LO:LB:g=original
=5	=5	=5	=5	=5	=5	=5	=5	=5	=5	=5
*^	*^	*	*	*	*	*	*	*	*	*
!	!	!	!	!	!	!	!	!	!	!	!	!LO:DY:a:rj
4A- 4AA-\	4.ryy	4a- 4e- 4c/	4.ryy	p	2.r	.	.	.	8cc\	Wstań	.	p
.	.	.	.	.	.	.	.	.	8b-\	pie-	.	.
8A- 8AA-\	.	8a- 8e- 8c/	.	.	.	.	.	.	8a-/	-śni,	.	.
(8A-/L	4BB-\	(8f/L	4d-\	.	.	.	.	.	8f/L	wstań	.	.
8G/	.	8g/	.	.	.	.	.	.	8g/J	.	.	.
8F/J)	8BB-\	8a-/J)	8d-\	.	.	.	.	.	8a-/	z drga-	.	.
=6	=6	=6	=6	=6	=6	=6	=6	=6	=6	=6	=6	=6
(8G/L	4E-\	(8b-/L	4d-\	.	2.r	.	.	.	8b-/L	-ją-	.	.
8A-/	.	8a-/	.	.	.	.	.	.	8a-/J	.	.	.
!	!	!	!	!	!	!	!	!	!	!	!	!LO:DY:a
8B-/J)	8E-\	8g/J)	8d-\	<	.	.	.	.	8g/	-cych	.	<
4A- 4AA-\	4.ryy	4cc 4e- 4c/	4.ryy	.	.	.	.	.	4cc\	strun	.	.
8A- 8AA-\	.	8cc 8a- 8e-/	.	[[	.	.	.	.	8cc\	i	.	[[
*v	*v	*	*	*	*	*	*	*	*	*	*	*
*	*v	*v	*	*	*	*	*	*	*	*	*
=7	=7	=7	=7	=7	=7	=7	=7	=7	=7	=7
4F 4FF/	4ff 4cc 4a- 4f/	mf	2.r	.	.	.	4ff\	dzwoń	.	.
8F 8FF/	8cc 8a- 8f/	.	.	.	.	.	8cc\	i	.	.
4c 4A-\	4ee- 4cc 4a- 4e-/	.	.	.	.	.	4ee-\	dźwięcz	.	.
8c 8A-\	8a- 8e-/	.	.	.	.	.	8a-/	i	.	.
=8	=8	=8	=8	=8	=8	=8	=8	=8	=8	=8
*	*^	*	*	*	*	*	*	*	*	*
4B-\	4dd-/	4f 4d-\	.	2.r	.	.	.	4dd-\	dzwoń	.	.
(<16A-\LL	(16cc/LL	8f 8d-\	>	.	.	.	.	16cc\LL	i	.	.
16G\JJ)	16b-/JJ)	.	.	.	.	.	.	16b-\JJ	.	.	.
4C/	4cc 4g 4en/	4.ryy	.	.	.	.	.	4cc\	dźwięcz	.	.
8C/	8cc 8g 8e/	.	]	.	.	.	.	8cc\	z drga-	.	.
*	*v	*v	*	*	*	*	*	*	*	*	*
!!LO:LB:g=original
=9	=9	=9	=9	=9	=9	=9	=9	=9	=9	=9
4F^\	4ddn 4a- 4f^>/	.	2.r	.	.	.	8ddn^\L	-ją-	.	.
.	.	.	.	.	.	.	8cc\J	.	.	.
8F\	8dd 8a- 8f/	.	.	.	.	.	8bn\	-cych	.	.
.	.	>	.	.	.	.	.	.	.	.
4C/	4cc 4g 4en/	.	.	.	.	.	4cc\	strun	.	.
8C/	8cc 8g 8e/	]]	.	.	.	.	8cc\	z drga-	.	.
=10	=10	=10	=10	=10	=10	=10	=10	=10	=10	=10
4F^\	4ddn 4a- 4f^>/	.	2.r	.	.	.	8ddn^\L	-ją-	.	.
.	.	.	.	.	.	.	8cc\J	.	.	.
8F\	8dd 8a- 8f/	>	.	.	.	.	8bn\	-cych	.	.
4C/	4cc 4g 4en/	.	.	.	.	.	4cc\	strun	.	.
8c\	8cc/	] p	.	.	.	.	8cc\	i	.	.
=11	=11	=11	=11	=11	=11	=11	=11	=11	=11	=11
4c\	4cc\	.	2.r	.	.	.	4cc\	dzwoń	.	.
!	!	!	!	!	!	!	!	!	!	!LO:DY:a
8c\	8cc\	<	.	.	.	.	8cc\	i	.	<
4c\	4cc\	.	.	.	.	.	4cc\	dźwięcz	.	.
8c\	8cc\	[[	.	.	.	.	8cc\	i	.	[[
=12	=12	=12	=12	=12	=12	=12	=12	=12	=12	=12
!	!	!	!	!	!	!	!	!	!	!LO:DY:a
4.e-\	4.ee-\	f	4r	.	.	.	[4.ee-\	dzwoń!_	.	f
.	.	.	8r	.	.	.	.	.	.	.
!LO:TX:t=P:problem:mixed beam	!	!	!	!	!	!	!	!	!	!
(16qqEE-/LL	.	.	.	.	.	.	.	.	.	.
16qqBB-/	.	.	.	.	.	.	.	.	.	.
16qqD-/	.	.	.	.	.	.	.	.	.	.
16qqE-/	.	.	.	.	.	.	.	.	.	.
16qqG/	.	.	.	.	.	.	.	.	.	.
16qqB-/	.	.	.	.	.	.	.	.	.	.
16qqd-/	.	.	.	.	.	.	.	.	.	.
16qqe->\	.	.	.	.	.	.	.	.	.	.
16qqg>\	.	.	.	.	.	.	.	.	.	.
16qqb->\	.	.	.	.	.	.	.	.	.	.
16qqdd->\	.	.	.	.	.	.	.	.	.	.
16qqee->\	.	.	.	.	.	.	.	.	.	.
16qqgg>\	.	.	.	.	.	.	.	.	.	.
16qqbb->\	.	.	.	.	.	.	.	.	.	.
16qqddd->\JJ)	.	.	.	.	.	.	.	.	.	.
*	*	*	*	*above	*	*	*	*	*	*
!	!	!	!	!	!	!LO:DY:rj	!	!	!	!
4r;	4eee-;\	.	4g;/	Dzwoń,	.	f	4ee-;\]	.	.	.
*	*	*	*	*below	*	*	*	*	*	*
.	.	.	.	.	.	.	.	.	.	.
!	!	!	!	!	!	!	!	!	!	!LO:DY:a
8r	8r	.	8e-/	.	.	.	8e-/	Przez	.	pp
!!LO:PB:g=original
=13	=13	=13	=13	=13	=13	=13	=13	=13	=13	=13
!	!	!	!	!	!	!LO:DY:b	!	!	!	!LO:DY:a
4AA- 4AAA-/	4cc 4a- 4e-/	pp	4a-/	.	.	pp	4cc\	blask	.	pp
8c 8A- 8E-\	8cc 8a- 8e-/	.	8a-/	.	.	.	8cc\	wie-	.	.
4c 4A- 4E-\	4cc 4a- 4e-/	.	4a-/	.	.	.	4cc\	-czor-	.	.
8c 8A- 8E-\	8cc 8a- 8e-/	.	8a-/	.	.	.	8cc\	-ny	.	.
=14	=14	=14	=14	=14	=14	=14	=14	=14	=14	=14
4BB- 4BBB-/	4dd- 4g 4e-/	.	4g/	.	.	.	4dd-\	zło-	.	.
8d- 8B- 8E-\	(24dn/LL	.	8g/	.	.	.	8e-/	-tych	.	.
.	24e-/	.	.	.	.	.	.	.	.	.
.	24f/JJ	.	.	.	.	.	.	.	.	.
4d- 4B- 4E-\	4e-/)	.	4g/	.	.	.	4e-/	łun,	.	.
8d- 8B- 8E-\	8e-/	.	8e-/	.	.	.	8e-/	przez	.	.
=15	=15	=15	=15	=15	=15	=15	=15	=15	=15	=15
4E- 4EE-/	4dd- 4g 4e-/	<	4g/	.	.	.	4dd-\	try-	.	.
!	!	!	!	!	!	!	!	!	!	!LO:DY:a
8d- 8B- 8E-\	8dd- 8g 8e-/	.	8g/	.	.	.	8dd-\	-um-	.	<
8d-L 8G 8E-\	8dd-L 8b- 8e-/	.	8b-/L	.	.	.	8dd-\L	-fal-	.	.
8c 8A- 8E-\	8cc 8a- 8e-/	.	8a-/J	.	.	.	8cc\J	.	.	.
8d-J 8G 8E-\	8dd-J 8b- 8e-/	.	8b-/	.	.	.	8dd-\	-ne	.	.
=16	=16	=16	=16	=16	=16	=16	=16	=16	=16	=16
4AA- 4AAA-/	4ee- 4cc 4a- 4e-/	.	4cc\	.	.	.	4ee-\	łu-	.	[
8c 8A- 8E-\	(24dn/LL	[	8cc\	.	.	.	8a-/	-ki	.	.
.	24e-/	.	.	.	.	.	.	.	.	.
.	24f/JJ	.	.	.	.	.	.	.	.	.
4c 4A- 4E-\	4e-/)	.	4cc\	.	.	.	4a-/	tęcz,	.	.
*	*	*	*	*above	*	*	*	*	*	*
8c 8A- 8E-\	8r	.	8a-/	płyń	.	.	8r	.	.	.
=17	=17	=17	=17	=17	=17	=17	=17	=17	=17	=17
!	!	!	!	!	!	!LO:DY:b:rj	!	!	!	!
4A- 4D-\	4f 4d-/	.	4ff\	w la-	.	f	4r	.	.	.
8A- 8D-\	8f 8d-/	.	8ff\	-zu-	.	.	8r	.	.	.
4An 4C\	4f 4e-/	.	4ee-\	-ro-	.	.	4r	.	.	.
!	!	!	!	!	!	!	!	!	!	!LO:DY:a
8A 8C\	8f 8e-/	.	16ff\LL	-wą	.	.	8f/	płyń	.	f
*	*	*	*	*below	*	*	*	*	*	*
.	.	.	16ee-\JJ	.	.	.	.	.	.	.
!!LO:LB:g=original
=18	=18	=18	=18	=18	=18	=18	=18	=18	=18	=18
*^	*^	*	*	*	*	*	*	*	*	*
*	*	*	*	*	*	*above	*	*	*	*	*	*
4BB-/	4.ryy	4f 4d-/	4.ryy	.	4dd-\	nie-	.	.	4ff\	w la-	.	.
8d- 8B- 8F\	.	8ff 8f\	.	.	8dd-\	-ba	.	.	8ff\	-zu-	.	.
4rF	4FF\	4ee-/	(8f\L	.	4cc\	-toń	.	.	4ee-\	-ro-	.	.
.	.	.	8g\	.	.	.	.	.	.	.	.	.
(16d-/LL	8d- 8F\	(16ff/LL	8an\J)	.	16dd-\LL	płyń	.	.	16ff\LL	-wą	.	.
16c/JJ)	.	16ee-/JJ)	.	.	16cc\JJ	.	.	.	16ee-\JJ	.	.	.
*v	*v	*	*	*	*	*	*	*	*	*	*	*
=19	=19	=19	=19	=19	=19	=19	=19	=19	=19	=19	=19
4BB-/	4.dd-/	4b-\	>	4b-\	w nie-	.	.	4dd-\	nie-	.	.
!	!	!	!	!	!	!	!	!	!	!	!LO:HP:a
.	.	.	.	.	.	.	.	.	.	.	>
8d- 8B- 8F\	.	8a-X\	.	8a-/	-ba	.	.	8dd-\	-ba	.	.
4d- 4B- 4E-\	8dd-L 8g/	4.ryy	.	8g/L	toń	.	.	8dd-\L	toń	.	.
.	8cc 8a-/	.	.	8a-/J	.	.	.	8cc\J	.	.	.
8B- 8G 8D-\	8dd-J 8b- 8e-/	.	]	8b-\	i	.	.	8dd-\	i	.	]
*	*v	*v	*	*	*	*	*	*	*	*	*
=20	=20	=20	=20	=20	=20	=20	=20	=20	=20	=20
4A- 4C;\	4ee- 4a- 4e-;/	pp	4a-;/	dzwoń,	.	.	4ee-;\	dzwoń,	.	.
*	*	*	*	*below	*	*	*	*	*	*
8r	8r	.	8r	.	.	.	8r	.	.	.
!	!	!	!	!	!	!LO:DY:a	!	!	!	!LO:DY:a
4r	4r	.	8a-/	.	.	p	8a-/	i	.	p
.	.	.	8b-/	.	.	.	8b-/	dźwięcz	.	.
8r	8r	.	8a-/	.	.	.	8a-/	i	.	.
=21	=21	=21	=21	=21	=21	=21	=21	=21	=21	=21
4A- 4F 4BB-\	4cc 4a- 4dn/	.	4dn/	.	.	.	4cc\	dzwoń,	.	.
8r	8r	.	8r	.	.	.	8r	.	.	.
4G 4E-'\	4b- 4g 4d-X'>/	.	4d-X/	.	.	.	4b-\	dźwięcz	.	.
8G 8E-'\	8b- 8g 8d-'>/	.	16e-/LL	.	.	.	16cc\LL	i	.	.
.	.	.	16d-/JJ	.	.	.	16b-\JJ	.	.	.
=22	=22	=22	=22	=22	=22	=22	=22	=22	=22	=22
4AA-'/	[4.a- 4.e- [4.c/	.	[4.c/	.	.	.	[4.a-/	dzwoń!	.	.
8E-'\	.	.	.	.	.	.	.	.	.	.
8A-'\	8a-] 8e- 8c/]	.	8c/]	.	.	.	8a-/]	.	.	.
8r	8r	.	8r	.	.	.	8r	.	.	.
*	*	*	*	*below	*	*	*	*	*	*
8r	8r	.	8e-/	Pod	.	.	8r	.	.	.
!!LO:LB:g=original
=23!|:	=23!|:	=23!|:	=23!|:	=23!|:	=23!|:	=23!|:	=23!|:	=23!|:	=23!|:	=23!|:
*>B	*>B	*>B	*>B	*>B	*>B	*>B	*>B	*>B	*>B	*>B
*k[b-e-a-d-g-]	*k[b-e-a-d-g-]	*	*k[b-e-a-d-g-]	*	*	*	*k[b-e-a-d-g-]	*	*	*
*	*	*	*	*v:1	*v:2	*	*	*	*	*
4.AA- 4.AAA-/	16r	p	4g-/	to-	to-	.	2.r	.	.	.
.	(16c/LL	.	.	.	.	.	.	.	.	.
.	16a-/	.	.	.	.	.	.	.	.	.
.	16g-X/	.	.	.	.	.	.	.	.	.
.	16c/	.	8g-/	-bą	-bą	.	.	.	.	.
.	16g-/JJ)	.	.	.	.	.	.	.	.	.
4A-\	16r	.	8g-/L	w do-	ła-	.	.	.	.	.
.	(16c/LL	.	.	.	.	.	.	.	.	.
.	16a-/	.	8f/J	.	.	.	.	.	.	.
.	16g-/	.	.	.	.	.	.	.	.	.
8r	16c/	.	8en/	-le,	-ny	.	.	.	.	.
.	16g-/JJ)	.	.	.	.	.	.	.	.	.
=24	=24	=24	=24	=24	=24	=24	=24	=24	=24	=24
4.F: 4.AA-: 4.DD-:/	16r	.	4a-/	w do-	chle-	.	2.r	.	.	.
.	(16d-/LL	.	.	.	.	.	.	.	.	.
.	16a-/	.	.	.	.	.	.	.	.	.
.	16f/	.	.	.	.	.	.	.	.	.
.	16d-/	.	8a-/	-le	-bnych	.	.	.	.	.
.	16f/JJ)	.	.	.	.	.	.	.	.	.
4D-\	16r	.	4a-/	gdzieś	zbóż	.	.	.	.	.
.	(16d-/LL	.	.	.	.	.	.	.	.	.
.	16a-/	.	.	.	.	.	.	.	.	.
.	16f/	.	.	.	.	.	.	.	.	.
8r	16d-/	.	8f/	w śród	i	.	.	.	.	.
.	16f/JJ)	.	.	.	.	.	.	.	.	.
=25	=25	=25	=25	=25	=25	=25	=25	=25	=25	=25
4.AA- 4.AAA-/	16r	.	4g-/	lip	wstę-	.	2.r	.	.	.
.	(16c/LL	.	.	.	.	.	.	.	.	.
.	16a-/	.	.	.	.	.	.	.	.	.
.	16g-/	.	.	.	.	.	.	.	.	.
.	16c/	.	8g-/	w śród	-gi,	.	.	.	.	.
.	16g-/JJ)	.	.	.	.	.	.	.	.	.
4A-\	16r	.	8g-/L	lip	wstę-	.	.	.	.	.
.	(16c/LL	.	.	.	.	.	.	.	.	.
.	16a-/	.	8f/J	.	.	.	.	.	.	.
.	16g-/	.	.	.	.	.	.	.	.	.
8r	16c/	.	8en/	i	-gi	.	.	.	.	.
.	16g-/JJ)	.	.	.	.	.	.	.	.	.
!!LO:PB:g=original
=26	=26	=26	=26	=26	=26	=26	=26	=26	=26	=26
4.F: 4.AA-: 4.DD-:/	16r	.	[4.a-/	brzóz_	rzek_	.	2.r	.	.	.
.	(16d-/LL	.	.	.	.	.	.	.	.	.
.	16a-/	.	.	.	.	.	.	.	.	.
.	16f/	.	.	.	.	.	.	.	.	.
.	16d-/	.	.	.	.	.	.	.	.	.
.	16f/JJ)	.	.	.	.	.	.	.	.	.
4.D- 4.DD-/	16r	.	8a-/]	.	.	.	.	.	.	.
.	(16c-X/LL	.	.	.	.	.	.	.	.	.
.	16a-/	.	8r	.	.	.	.	.	.	.
.	16f/	.	.	.	.	.	.	.	.	.
.	16c-/	.	8a-/	w zie-	i	.	.	.	.	.
.	16f/JJ)	.	.	.	.	.	.	.	.	.
=27	=27	=27	=27	=27	=27	=27	=27	=27	=27	=27
!	!	!	!	!	!	!LO:DY:a	!	!	!	!
4.Dn 4.DDn/	16r	<	4b-\	-lo-	sza-	<	4r	.	.	.
.	(16B-/LL	.	.	.	.	.	.	.	.	.
.	16a-/	.	.	.	.	.	.	.	.	.
.	16f/	.	.	.	.	.	.	.	.	.
!	!	!	!	!	!	!	!	!	!	!LO:DY:a
*	*	*	*	*	*	*	*	*v:1	*v:2	*
.	16B-/	.	8a-/	-nych	-fi-	[	8b-\	tam	tam	<
.	16f/JJ)	.	.	.	.	.	.	.	.	.
*clefG2	*	*	*	*	*	*	*	*	*	*
(8ff\L	16r	[	8a-/L	sa-	-ro-	.	4b-\	w sa-	ta-	.
.	(16B-/LL	.	.	.	.	.	.	.	.	.
8ee-\	16a-/	.	8g-/J	.	.	.	.	.	.	.
.	16f/	.	.	.	.	.	.	.	.	.
8ddn\J)	16B-/	.	8f/	-dach	-we	.	8b-\	-dach	-fle,	[
.	16f/JJ)	.	.	.	.	.	.	.	.	.
*clefF4	*	*	*	*	*	*	*	*	*	*
=28	=28	=28	=28	=28	=28	=28	=28	=28	=28	=28
4.E- 4.EE-/	16r	.	4b-\	ci-	ta-	.	4g-/	ci-	ta-	.
.	(16B-/LL	.	.	.	.	.	.	.	.	.
.	16g-/	.	.	.	.	.	.	.	.	.
.	16e-/	.	.	.	.	.	.	.	.	.
.	16B-/	.	8g-/	-cha	-fle	.	8b-\	-cha	-fle	.
.	16e-/JJ)	.	.	.	.	.	.	.	.	.
*clefG2	*	*	*	*	*	*	*	*	*	*
(8gg-\L	16r	.	4e-/	wieś	mórz	.	4ee-\	wieś	mórz	.
.	(16B-/LL	.	.	.	.	.	.	.	.	.
8ff\	16g-/	.	.	.	.	.	.	.	.	.
.	16e-/	.	.	.	.	.	.	.	.	.
8ee-\J)	16B-/	.	8g-/	i	i	.	8r	.	.	.
.	16e-/JJ)	.	.	.	.	.	.	.	.	.
*clefF4	*	*	*	*	*	*	*	*	*	*
!!LO:LB:g=original
=29	=29	=29	=29	=29	=29	=29	=29	=29	=29	=29
!	!	!	!	!	!	!LO:DY:a	!	!	!	!
4.Dn 4.DDn/	16r	.	4b-\	świer-	skal-	<	4r	.	.	.
.	(16B-/LL	.	.	.	.	.	.	.	.	.
.	16a-/	.	.	.	.	.	.	.	.	.
.	16f/	.	.	.	.	.	.	.	.	.
!	!	!	!	!	!	!	!	!	!	!LO:DY:a
.	16B-/	.	8a-/	-got	-nych	[	8b-\	i	i	<
.	16f/JJ)	.	.	.	.	.	.	.	.	.
*clefG2	*	*	*	*	*	*	*	*	*	*
!	!	!	!LO:TUP:b	!	!	!	!	!	!	!
(8ff\L	16r	.	24a-/LL	pta-	szczy-	.	4b-\	świer-	szczy-	.
.	.	.	24b-/	.	.	.	.	.	.	.
.	(16B-/LL	.	.	.	.	.	.	.	.	.
.	.	.	24a-/J	.	.	.	.	.	.	.
8ee-\	16a-/	.	8g-/J	.	.	.	.	.	.	[
.	16f/	.	.	.	.	.	.	.	.	.
8ddn\J)	16B-/	.	8f/	-si	-tów	.	8b-\	-got	-tów	.
.	16f/JJ)	.	.	.	.	.	.	.	.	.
*clefF4	*	*	*	*	*	*	*	*	*	*
=30	=30	=30	=30	=30	=30	=30	=30	=30	=30	=30
4.E- 4.EE-/	16r	.	4b-\	w gą-	sre-	.	4g-/	w gą-	sre-	.
.	(16B-/LL	.	.	.	.	.	.	.	.	.
.	16g-/	.	.	.	.	.	.	.	.	.
.	16e-/	.	.	.	.	.	.	.	.	.
.	16B-/	.	8g-/	-szczach	-brny	.	8b-\	-szczach	-brny	.
.	16e-/JJ)	.	.	.	.	.	.	.	.	.
*clefG2	*	*	*	*	*	*	*	*	*	*
(8bb-L 8gg-\	16r	.	4e-/	łóz	śnieg,	.	4ee-\	łóz	śnieg	.
.	(16B-/LL	.	.	.	.	.	.	.	.	.
8aa- 8ff\	16g-/	.	.	.	.	.	.	.	.	.
.	16e-/	.	.	.	.	.	.	.	.	.
8gg-J 8ee-\)	16B-/	.	8b-\	i	pod	.	8r	.	.	.
.	16e-/JJ)	.	.	.	.	.	.	.	.	.
*clefF4	*	*	*	*	*	*	*	*	*	*
=31	=31	=31	=31	=31	=31	=31	=31	=31	=31	=31
!	!	!	!	!	!	!LO:DY:a	!	!	!	!
4E- 4EE-/	4dd- 4b- 4g- 4e-/	f	8dd-\L	dy-	to-	f	2.r	.	.	.
.	.	.	8b-\J	.	.	.	.	.	.	.
8r	8r	.	8g-/	-my,	-bą	.	.	.	.	.
4r	4r	.	8e-/L	któ-	w chmu-	.	.	.	.	.
.	.	.	8f/J	.	.	.	.	.	.	.
8r	8r	.	8g-/	-re	-rach	.	.	.	.	.
!!LO:LB:g=original
=32	=32	=32	=32	=32	=32	=32	=32	=32	=32	=32
2.r	2.r	.	4cc\	wia-	śpią-	.	4r	.	.	.
.	.	.	8b-\	-tru	-cy	.	8r	.	.	.
.	.	.	8a-/	dech	grzmot	.	4r	.	.	.
.	.	.	8r	.	.	.	.	.	.	.
!	!	!	!	!	!	!LO:DY:a:rj	!	!	!	!LO:DY:a:rj
.	.	.	8a-/	gna	i	pp	8a-/	gna	i	pp
=33	=33	=33	=33	=33	=33	=33	=33	=33	=33	=33
!!LO:TX:a:B:t=1.
*>B1	*>B1	*>B1	*>B1	*>B1	*>B1	*>B1	*>B1	*>B1	*>B1	*>B1
!	!LO:S:s=2:note:problem=note-level slur	!	!	!	!	!	!	!	!	!
(2.c: 2.E-: (2.AA-:\	(2.cc (>2.g- (2.e-/	pp	[4.g-/	z nis-	.	.	[4.ee-\	z nis-	.	.
.	.	.	4g-/]	.	.	.	4ee-\]	.	.	.
.	.	.	8g-/	-kich	.	.	8a-/	-kich	.	.
=34	=34	=34	=34	=34	=34	=34	=34	=34	=34	=34
!	!LO:S:s=2:note:problem=note-level slur	!	!	!	!	!	!	!	!	!
[4.D- [4.DD-/))	[4.dd-) [>4.f) [4.d-/)	.	[4.f/	strzech.	.	.	[4.dd-\	strzech	.	.
8D-] 8DD-/]	8dd-] 8f] 8d-/]	.	8f/]	.	.	.	8dd-\]	.	.	.
8r	8r	.	8r	.	.	.	8r	.	.	.
8r	8r	.	8e-/	Pod	.	.	8r	.	.	.
=35:|!	=35:|!	=35:|!	=35:|!	=35:|!	=35:|!	=35:|!	=35:|!	=35:|!	=35:|!	=35:|!
!!LO:TX:a:B:t=2.
*>B2	*>B2	*>B2	*>B2	*>B2	*>B2	*>B2	*>B2	*>B2	*>B2	*>B2
!	!LO:S:s=2:note:problem=note-level slur	!	!	!	!	!	!	!	!	!
(2.c: 2.E-: (2.AA-:\	(2.cc (>2.g- (2.e-/	pp	[4.g-/	.	or-	.	[4.ee-\	.	or-	.
.	.	.	4g-/]	.	.	.	4ee-\]	.	.	.
.	.	.	8g-/	.	-łów	.	8a-/	.	-łów	.
=36	=36	=36	=36	=36	=36	=36	=36	=36	=36	=36
!	!LO:S:s=2:note:problem=note-level slur	!	!	!	!	!	!	!	!	!
4.D- 4.DD-;/))	4.dd-) 4.f) 4.d-;/)	.	4.f;/	.	lot!	.	4.dd-;\	.	lot!	.
=-	=-	=-	=-	=-	=-	=-	=-	=-	=-	=-
*k[b-e-a-d-]	*k[b-e-a-d-]	*	*k[b-e-a-d-]	*	*	*	*k[b-e-a-d-]	*	*	*
!	!	!	!	!	!	!	!LO:TX:t=P:problem:zmiana tonacji	!	!	!
4r	(16ddn\LL	p	4r	.	.	.	4r	.	.	.
.	16ee-\	.	.	.	.	.	.	.	.	.
.	16ff\	.	.	.	.	.	.	.	.	.
.	16ee-\	.	.	.	.	.	.	.	.	.
8r	16cc\	.	8r	.	.	.	8r	.	.	.
.	16a-\JJ	.	.	.	.	.	.	.	.	.
!!LO:PB:g=original
=37||	=37||	=37||	=37||	=37||	=37||	=37||	=37||	=37||	=37||	=37||
*>C	*>C	*>C	*>C	*>C	*>C	*>C	*>C	*>C	*>C	*>C
!	!LO:TX:t=P:problem:zakończenie łuku dołem	!	!	!	!	!	!	!	!	!
4d- 4G 4E-\	4f^>/	.	2.r	.	.	.	2.r	.	.	.
8d- 8G 8E-\	8e-/)	.	.	.	.	.	.	.	.	.
4.E- 4.EE-/	(>8dd-L 8g 8f/	.	.	.	.	.	.	.	.	.
.	8.cc 8.g 8.e-/	<	.	.	.	.	.	.	.	.
.	16bnJk 16g 16dn/	[[	.	.	.	.	.	.	.	.
=38	=38	=38	=38	=38	=38	=38	=38	=38	=38	=38
4AA-/	(4bn [4a- (4dn/	>	2.r	.	.	.	2.r	.	.	.
8c 8A-\	8cc 8a-] 8e-/)))	.	.	.	.	.	.	.	.	.
4c 4A-\	(16ddn\LL	]	.	.	.	.	.	.	.	.
.	16ee-\	.	.	.	.	.	.	.	.	.
.	16ff\	.	.	.	.	.	.	.	.	.
.	16ee-\	.	.	.	.	.	.	.	.	.
8r	16cc\	.	.	.	.	.	.	.	.	.
.	16a-\JJ	.	.	.	.	.	.	.	.	.
=39	=39	=39	=39	=39	=39	=39	=39	=39	=39	=39
4d- 4G 4E-\	4f^>/	.	2.r	.	.	.	2.r	.	.	.
8d- 8G 8E-\	8e-/)	.	.	.	.	.	.	.	.	.
4.E- 4.EE-/	(>8dd-L 8g 8f/	.	.	.	.	.	.	.	.	.
.	8.cc 8.g 8.e-/	.	.	.	.	.	.	.	.	.
!	!LO:N:vis=8	!	!	!	!	!	!	!	!	!
.	16b-Jk 16g 16d-/	.	.	.	.	.	.	.	.	.
=40	=40	=40	=40	=40	=40	=40	=40	=40	=40	=40
4A- 4AA-\	4a- 4e- 4c/)	.	2.r	.	.	.	4r	.	.	.
8A- 8AA-\	8a- 8e- 8c/	.	.	.	.	.	8r	.	.	.
4A- 4AA-\	4a- 4e- 4c/	.	.	.	.	.	4r	.	.	.
!	!	!	!	!	!	!	!	!	!	!LO:DY:a
8A- 8AA-\	8a- 8e- 8c/	.	.	.	.	.	8e-/	O	.	p
=41	=41	=41	=41	=41	=41	=41	=41	=41	=41	=41
*^	*^	*	*	*	*	*	*	*	*	*
4A- 4AA-\	4.ryy	4a- 4e- 4c/	4.ryy	p	2.r	.	.	.	8cc\L	płyń	.	.
.	.	.	.	.	.	.	.	.	8b-\J	.	.	.
8A- 8AA-\	.	8a- 8e- 8c/	.	.	.	.	.	.	8a-/	przez	.	.
(8A-/L	4BB-\	(8f/L	4d-\	.	.	.	.	.	8f/L	gwiazd	.	.
8G/	.	8g/	.	.	.	.	.	.	8g/J	.	.	.
8F/J)	8BB-\	8a-/J)	8d-\	.	.	.	.	.	8a-/	pro-	.	.
!!LO:LB:g=original
=42	=42	=42	=42	=42	=42	=42	=42	=42	=42	=42	=42	=42
(8G/L	4E-\	(8b-/L	4d-\	.	2.r	.	.	.	8b-/L	-mien-	.	.
8A-/	.	8a-/	.	.	.	.	.	.	8a-/J	.	.	.
8B-/J)	8E-\	8g/J)	8d-\	.	.	.	.	.	8g/	-ny	.	.
!	!	!	!	!	!	!	!	!	!	!	!	!LO:DY:a
4A- 4AA-\	4.ryy	4cc 4e- 4c/	4.ryy	<	.	.	.	.	4cc\	pył	.	<
8A- 8AA-\	.	8cc 8a- 8e-/	.	[[	.	.	.	.	8cc\	w ot-	.	[[
*v	*v	*	*	*	*	*	*	*	*	*	*	*
*	*v	*v	*	*	*	*	*	*	*	*	*
=43	=43	=43	=43	=43	=43	=43	=43	=43	=43	=43
4F 4FF/	4ff 4cc 4a- 4f\	mf	2.r	.	.	.	4ff\	-chła-	.	.
8F 8FF/	8cc 8a- 8f/	.	.	.	.	.	8cc\	-nie	.	.
4c 4A-\	4ee- 4cc 4a- 4e-/	.	.	.	.	.	4ee-\	sfer,	.	.
8c 8A-\	8a- 8e-/	.	.	.	.	.	8a-/	w ot-	.	.
=44	=44	=44	=44	=44	=44	=44	=44	=44	=44	=44
*	*^	*	*	*	*	*	*	*	*	*
4B-\	4dd-/	4f 4d-\	.	2.r	.	.	.	4dd-\	-chła-	.	.
!	!	!	!	!	!	!	!	!LO:N:vis=8	!	!	!
(16A-\LL	(>16cc/LL	2ryy	.	.	.	.	.	16cc\LL	-nie	.	.
!	!	!	!	!	!	!	!	!LO:N:vis=8	!	!	!
16G\JJ)	16b-/JJ)	.	>	.	.	.	.	16b-\JJ	.	.	.
4C/	4cc 4g 4en/	.	.	.	.	.	.	4cc\	sfer,	.	.
.	.	.	.	.	.	.	.	.	.	.	.
8C/	8cc 8g 8e/	.	]	.	.	.	.	8cc\	pro-	.	.
*	*v	*v	*	*	*	*	*	*	*	*	*
=45	=45	=45	=45	=45	=45	=45	=45	=45	=45	=45
4F\	4ddn 4a- 4f^>/	.	2.r	.	.	.	8ddn^\L	-mien-	.	.
.	.	.	.	.	.	.	8cc\J	.	.	.
8F\	8dd 8a- 8f/	>	.	.	.	.	8bn\	-ny	.	.
4C/	4cc 4g 4en/	.	.	.	.	.	4cc\	pył,	.	.
8C/	8cc 8g 8e/	]	.	.	.	.	8cc\	pro-	.	.
=46	=46	=46	=46	=46	=46	=46	=46	=46	=46	=46
4F\	4ddn 4a- 4f^>/	.	2.r	.	.	.	8ddn^\L	-mien-	.	.
.	.	.	.	.	.	.	8cc\J	.	.	.
8F\	8dd 8a- 8f/	.	.	.	.	.	8bn\	-ny	.	.
4C/	4cc 4g 4en/	.	.	.	.	.	4cc\	pył,	.	.
8c\	8cc\	p	.	.	.	.	8cc\	w ot-	.	.
!!LO:LB:g=original
=47	=47	=47	=47	=47	=47	=47	=47	=47	=47	=47
4c\	4cc\	<	2.r	.	.	.	4cc\	-chła-	.	.
!	!	!	!	!	!	!	!	!	!	!LO:DY:a
8c\	8cc\	.	.	.	.	.	8cc\	-nie	.	<
4c\	4cc\	.	.	.	.	.	4cc\	sfer,	.	.
8c\	8cc\	[	.	.	.	.	8cc\	ach	.	[[
=48	=48	=48	=48	=48	=48	=48	=48	=48	=48	=48
!	!	!	!	!	!	!	!	!	!	!LO:DY:a
4.e-\	4.ee-\	f	4r	.	.	.	[4.ee-\	płyń!_	.	f
.	.	.	8r	.	.	.	.	.	.	.
!LO:TX:t=P:problem:mixed beam	!	!	!	!	!	!	!	!	!	!
(16qqEE-/LL	.	.	.	.	.	.	.	.	.	.
16qqBB-/	.	.	.	.	.	.	.	.	.	.
16qqD-/	.	.	.	.	.	.	.	.	.	.
16qqE-/	.	.	.	.	.	.	.	.	.	.
16qqG/	.	.	.	.	.	.	.	.	.	.
16qqB-/	.	.	.	.	.	.	.	.	.	.
16qqd-/	.	.	.	.	.	.	.	.	.	.
16qqe->\	.	.	.	.	.	.	.	.	.	.
16qqg>\	.	.	.	.	.	.	.	.	.	.
16qqb->\	.	.	.	.	.	.	.	.	.	.
16qqdd->\	.	.	.	.	.	.	.	.	.	.
16qqee->\	.	.	.	.	.	.	.	.	.	.
16qqgg>\	.	.	.	.	.	.	.	.	.	.
16qqbb->\	.	.	.	.	.	.	.	.	.	.
16qqddd->\JJ)	.	.	.	.	.	.	.	.	.	.
*	*	*	*	*above	*	*	*	*	*	*
!	!	!	!	!	!	!LO:DY:b:rj	!	!	!	!
4r;	4eee-\;	.	4g;/	Płyń	.	f	4ee-;\]	.	.	.
*	*	*	*	*below	*	*	*	*	*	*
!	!	!	!	!	!	!LO:DY:b	!	!	!	!LO:DY:a
8r	8r	.	8e-/	.	.	pp	8e-/	W za-	.	pp
=49	=49	=49	=49	=49	=49	=49	=49	=49	=49	=49
4AA- 4AAA-/	4cc 4a- 4e-/	pp	4a-/	.	.	.	4cc\	-wro-	.	.
8c 8A- 8E-\	8cc 8a- 8e-/	.	8a-/	.	.	.	8cc\	-tny	.	.
4c 4A- 4E-\	4cc 4a- 4e-/	.	4a-/	.	.	.	4cc\	wir	.	.
8c 8A- 8E-\	8cc 8a- 8e-/	.	8a-/	.	.	.	8cc\	og-	.	.
=50	=50	=50	=50	=50	=50	=50	=50	=50	=50	=50
4BB- 4BBB-/	4dd- 4g 4e-/	.	4g/	.	.	.	4dd-\	-ni-	.	.
8d- 8B- 8E-\	(24dn/LL	.	8g/	.	.	.	8e-/	-stych	.	.
.	24e-/	.	.	.	.	.	.	.	.	.
.	24f/JJ	.	.	.	.	.	.	.	.	.
4d- 4B- 4E-\	4e-/)	.	4g/	.	.	.	4e-/	brył,	.	.
8d- 8B- 8E-\	8e-/	.	8e-/	.	.	.	8e-/	w szkar-	.	.
!!LO:PB:g=original
=51	=51	=51	=51	=51	=51	=51	=51	=51	=51	=51
!	!	!	!	!	!	!	!	!	!	!LO:DY:a
4E- 4EE-/	4dd- 4g 4e-/	<	4g/	.	.	.	4dd-\	-ła-	.	<
8d- 8B- 8E-\	8dd- 8g 8e-/	.	8g/	.	.	.	8dd-\	-tny	.	.
8d-L 8G 8E-\	8dd-L 8b- 8e-/	.	8b-/L	.	.	.	8dd-\L	od-	.	.
8c 8A- 8E-\	8cc 8a- 8e-/	.	8a-/J	.	.	.	8cc\J	.	.	.
8d-J 8G 8E-\	8dd-J 8b- 8e-/	[	8b-\	.	.	.	8dd-\	-męt	.	[[
=52	=52	=52	=52	=52	=52	=52	=52	=52	=52	=52
4AA- 4AAA-/	4ee- 4cc 4a- 4e-/	.	4cc\	.	.	.	4ee-\	krwa-	.	.
8c 8A- 8E-\	(24dn/LL	.	8cc\	.	.	.	8a-/	-wych	.	.
.	24e-/	.	.	.	.	.	.	.	.	.
.	24f/JJ	.	.	.	.	.	.	.	.	.
4c 4A- 4E-\	4e-/)	.	4cc\	.	.	.	4a-/	skier	.	.
!	!	!	!	!	!	!LO:DY:a	!	!	!	!
8c 8A- 8E-\	8r	.	8a-/	w blask	.	f	8r	.	.	.
=53	=53	=53	=53	=53	=53	=53	=53	=53	=53	=53
4A- 4D-\	4f 4d-/	.	4ff\	o-	.	.	4r	.	.	.
8A- 8D-\	8f 8d-/	.	8ff\	-pa-	.	.	8r	.	.	.
4An 4C\	4f 4e-/	.	4ee-\	-lo-	.	.	4r	.	.	.
!	!	!	!	!	!	!	!	!	!	!LO:DY:a
8A 8C\	8f 8e-/	.	16ff\LL	-wy	.	.	8f/	w blask	.	f
.	.	.	16ee-\JJ	.	.	.	.	.	.	.
=54	=54	=54	=54	=54	=54	=54	=54	=54	=54	=54
*^	*^	*	*	*	*	*	*	*	*	*
4BB-/	4.ryy	4f 4d-/	4.ryy	.	4dd-\	leć	.	.	4ff\	o-	.	.
8d- 8B- 8F\	.	8ff 8f\	.	.	8dd-\	i	.	.	8ff\	-pa-	.	.
4rA	4FF\	4ee-/	(8f\L	.	4cc\	toń,	.	.	4ee-\	-lo-	.	.
.	.	.	8g\	.	.	.	.	.	.	.	.	.
(16d-/LL	8F\	(16ff/LL	8an\J)	.	16dd-\LL	w blask	.	.	16ff\LL	-wy	.	.
16c/JJ)	.	16ee-/JJ)	.	.	16cc\JJ	.	.	.	16ee-\JJ	.	.	.
*v	*v	*	*	*	*	*	*	*	*	*	*	*
=55	=55	=55	=55	=55	=55	=55	=55	=55	=55	=55	=55
4BB-/	4.dd-/	(4b-\	>	4b-\	o-	.	.	4dd-\	leć	.	>
8d- 8B- 8F\	.	8a-X\)	.	8a-/	-pa-	.	.	8dd-\	i	.	.
4d- 4B- 4E-\	8dd-L 8g/	4.ryy	.	8g/L	-lo-	.	.	8dd-\L	toń	.	.
.	8cc 8a-/	.	.	8a-/J	.	.	.	8cc\J	.	.	.
8B- 8G 8D-\	8dd-J 8b- 8e-/	.	]	8b-/	-wy	.	.	8dd-\	i	.	]
*	*v	*v	*	*	*	*	*	*	*	*	*
!!LO:LB:g=original
=56	=56	=56	=56	=56	=56	=56	=56	=56	=56	=56
4A- 4C;<\	4ee- 4a- 4e-;/	pp	4a-;/	dźwięcz,	.	.	4ee-;\	dźwięcz	.	.
8r	8r	.	8r	.	.	.	8r	.	.	.
!	!	!	!	!	!	!LO:DY:a	!	!	!	!LO:DY:a
4r	4r	.	8a-/	.	.	p	8a-/	i	.	p
.	.	.	8b-/	.	.	.	8b-/	dźwięcz	.	.
8r	8r	.	8a-/	.	.	.	8a-/	i	.	.
=57	=57	=57	=57	=57	=57	=57	=57	=57	=57	=57
4A- 4F 4BB-\	4cc 4a- 4dn/	pp	4dn/	.	.	.	4cc\	dzwoń,	.	.
8r	8r	.	8r	.	.	.	8r	.	.	.
4G 4E-'\	4b- 4g 4d-X'>/	.	4d-X/	.	.	.	4b-\	dźwięcz	.	.
8G 8E-'\	8b- 8g 8d-'>/	.	16e-/LL	.	.	.	16cc\LL	i	.	.
.	.	.	16d-/JJ	.	.	.	16b-\JJ	.	.	.
=58	=58	=58	=58	=58	=58	=58	=58	=58	=58	=58
4AA-'/	4a- 4e- 4c/	.	[4.c/	.	.	.	[4.a-/	dzwoń!	.	.
8E-'\	8ryy	.	.	.	.	.	.	.	.	.
8A-'\	(16ddn\LL	p	8c/]	.	.	.	8a-/]	.	.	.
.	16ee-\	.	.	.	.	.	.	.	.	.
8r	16ff\	.	8r	.	.	.	8r	.	.	.
.	16ee-\	.	.	.	.	.	.	.	.	.
8r	16cc\	.	8r	.	.	.	8r	.	.	.
.	16a-\JJ	.	.	.	.	.	.	.	.	.
=59	=59	=59	=59	=59	=59	=59	=59	=59	=59	=59
4d- 4G 4E-\	4f^>/	.	4r	.	.	.	4r	.	.	.
8d- 8G 8E-\	8e-/)	.	8r	.	.	.	8r	.	.	.
4.E- 4.EE-/	8dd-L 8g 8f/	<	8f/	.	.	.	8dd-\	i	.	.
.	8.cc 8.g 8.e-/	.	8.e-/	.	.	.	8.cc\	dźwięcz	.	.
.	16bnJk 16g 16dn/	[[	16dn/	.	.	.	16bn\	i	.	.
=60	=60	=60	=60	=60	=60	=60	=60	=60	=60	=60
4AA-/	(4bn [4a- (4dn/	>	(4dn/	.	.	.	(4bn\	dzwoń,	.	.
8c 8A-\	8cc 8a-] 8e-/))	.	8e-/)	.	.	.	8cc\)	.	.	.
4c 4A-\	(16ddn\LL	]	4r	.	.	.	4r	.	.	.
.	16ee-\	.	.	.	.	.	.	.	.	.
.	16ff\	.	.	.	.	.	.	.	.	.
.	16ee-\	.	.	.	.	.	.	.	.	.
8r	16cc\	.	8r	.	.	.	8r	.	.	.
.	16a-\JJ	.	.	.	.	.	.	.	.	.
!!LO:LB:g=original
=61	=61	=61	=61	=61	=61	=61	=61	=61	=61	=61
4d- 4G 4E-\	4f^>/	.	4r	.	.	.	4r	.	.	.
8d- 8G 8E-\	8e-/)	.	8r	.	.	.	8r	.	.	.
4.E- 4.EE-/	(>8dd-L 8g 8f/	.	8f/	.	.	.	8dd-\	i	.	.
.	8.cc 8.g 8.e-/	.	8.e-/	.	.	.	8.cc\	dźwięcz	.	.
.	16b-Jk 16g 16d-/	.	16d-/	.	.	.	16b-\	i	.	.
=62	=62	=62	=62	=62	=62	=62	=62	=62	=62	=62
[2.A- [2.E- [2.AA-\	16a-/LL)	pp	4c/	.	.	.	4a-/	dzwoń,	.	.
.	(16e-/	.	.	.	.	.	.	.	.	.
.	16c/	.	.	.	.	.	.	.	.	.
.	16e-/	.	.	.	.	.	.	.	.	.
.	16f/	.	8e-/	.	.	.	8cc\	ach,	.	.
.	16a-/JJ	.	.	.	.	.	.	.	.	.
.	16cc/LL	.	4c/	.	.	.	4a-/	dźwięcz	.	.
.	16a-/	.	.	.	.	.	.	.	.	.
.	16e-/	.	.	.	.	.	.	.	.	.
.	16f/	.	.	.	.	.	.	.	.	.
.	16a-/	.	8e-/	.	.	.	8cc\	i	.	.
.	16cc/JJ	.	.	.	.	.	.	.	.	.
=63	=63	=63	=63	=63	=63	=63	=63	=63	=63	=63
2.A-_ 2.E-_ 2.AA-\_	16ee-\LL	.	[>2.c/	.	.	.	[>2.a-/	dzwoń!_	.	.
.	16cc\	.	.	.	.	.	.	.	.	.
.	16a-\	.	.	.	.	.	.	.	.	.
.	16cc\	.	.	.	.	.	.	.	.	.
.	16ee-\	.	.	.	.	.	.	.	.	.
.	16ff\JJ	.	.	.	.	.	.	.	.	.
.	16aa-\LL	.	.	.	.	.	.	.	.	.
.	16ee-\	.	.	.	.	.	.	.	.	.
.	16cc\	.	.	.	.	.	.	.	.	.
.	16ee-\	.	.	.	.	.	.	.	.	.
.	16ff\	.	.	.	.	.	.	.	.	.
.	16aa-\JJ	.	.	.	.	.	.	.	.	.
=64	=64	=64	=64	=64	=64	=64	=64	=64	=64	=64
4A-] 4E-] 4AA-\]	4ccc\)	.	4c/]	.	.	.	4a-/]	.	.	.
8r	8r	.	8r	.	.	.	8r	.	.	.
4r	4r	.	4r	.	.	.	4r	.	.	.
8r	8r	.	8r	.	.	.	8r	.	.	.
=65	=65	=65	=65	=65	=65	=65	=65	=65	=65	=65
2.AA- 2.AAA-;/	2.a- 2.e- 2.c;/	pp	2.r;	.	.	.	2.r;	.	.	.
==	==	==	==	==	==	==	==	==	==	==
*-	*-	*-	*-	*-	*-	*-	*-	*-	*-	*-
!!!system-decoration: g1,g2{(g3)}
!!!RDF**kern: i = editorial accidental
!!!RDF**kern: > = above
!!!RDF**kern: < = below
!!!RDF**kern: N = linked
!!!RDF**dynam: > = "dim.", fontstyle= "italic"
!!!ENC: Andrzej Gręziak
!!!EED: Katarzyna Serwa
!!!END: 2023-10-03
!!!EEV: 2023-10-14
